X: 780
T: Fangxian hao
L: 1/8
M: 2/4
K: G
B2A2 [I:setbarnb 1]| 
B2A2 | 
B A B E | 
G EG2 | 
B A B A | 
G BA2 | 
E E G B, | 
D4 | 
B d A G | 
E E G B | 
D4 |]

@@@ Tune index: 9654
